X:0983
T:A Sky Dance.
M:C
L:1/8
Q:1/2=100
I: :: ::
Z:Jack Campin * www.campin.me.uk * 2009
K:A Mixolydian
e|AAeA c2BA|BBBB d2f2|AAe2 AcBA|B2BB dAA:|
e|aeed c2BA|AAeA c2e2|aeed c2BA|B2BB dAA:|
<end>
<start>
